Papirus/24x24/apps/phasmophobia.svg

<svg xmlns="http://www.w3.org/2000/svg" width="24" height="24" version="1.1">
 <rect style="fill:#5d5d5d" width="20" height="20" x="2" y="2" rx="1.5" ry="1.5"/>
 <path style="opacity:0.2;fill:#ffffff" d="m 3.5000001,2 c -0.831,0 -1.5,0.669 -1.5,1.5 V 4 c 0,-0.831 0.669,-1.5 1.5,-1.5 H 20.5 C 21.331,2.5 22,3.169 22,4 V 3.5 C 22,2.669 21.331,2 20.5,2 Z"/>
 <path style="opacity:0.2" d="M 2,20.5 V 21 c 0,0.831 0.669,1.5 1.5,1.5 h 17 C 21.331,22.5 22,21.831 22,21 V 20.5 C 22,21.331 21.331,22 20.5,22 H 3.5 C 2.669,22 2,21.331 2,20.5 Z"/>
 <path style="opacity:0.2" d="m 10,3.5 v 1 H 8 V 5.3457575 7.5 h 1 v 0 l 10e-8,0.9999999 L 9,9.5 h 1 V 9.9999999 12.5 H 9 v 1 h 1 v 0 0 1 h 1 v 1 h -1 v 2 h 1 v 0.5 0 1 0.5 1 h 1 v 1 h 1 v -2 h -1 v -1 -2 -2 -1 0 h 1 v 0 l 3,-3 v -1 l 1,-1.0000001 v -2 H 16 V 5.5 5.5 H 15 V 5 4.5 h -1 v 0 h -1 v -1 z m -1,2 h 1 v 1 H 9 Z m 2.5,0 H 13 v 1 0 1 h 1 v -1 l 1,-1e-7 V 8.5 v 1 h -1 v 1 l -1,1 h -1 -1 v -2.0000001 -3 V 5.5 Z"/>
 <path style="fill:#ffffff" d="M 10,3 V 4 H 8 V 4.8457575 7 h 1 v 0 l 10e-8,0.9999999 L 9,9 h 1 V 9.4999999 12 H 9 v 1 h 1 v 0 0 1 h 1 v 1 h -1 v 2 h 1 v 0.5 0 1 0.5 1 h 1 v 1 h 1 v -2 h -1 v -1 -2 -2 -1 0 h 1 v 0 l 3,-3 V 9 l 1,-1.0000001 v -2 H 16 V 5 5 H 15 V 4.5 4 H 14 V 4 H 13 V 3 Z M 9,5 h 1 V 6 H 9 Z m 2.5,0 H 13 v 1 0 1 h 1 V 6 l 1,-1e-7 V 8 9 h -1 v 1 l -1,1 h -1 -1 v -2.0000001 -3 V 5 Z"/>
</svg>

<svg xmlns="http://www.w3.org/2000/svg" width="24" height="24" version="1.1">
 <rect style="fill:#5d5d5d" width="20" height="20" x="2" y="2" rx="1.5" ry="1.5"/>
 <path style="opacity:0.1;fill:#ffffff" d="m 3.5000001,2 c -0.831,0 -1.5,0.669 -1.5,1.5 V 4 c 0,-0.831 0.669,-1.5 1.5,-1.5 H 20.5 C 21.331,2.5 22,3.169 22,4 V 3.5 C 22,2.669 21.331,2 20.5,2 Z"/>
 <path style="opacity:0.2" d="M 2,20.5 V 21 c 0,0.831 0.669,1.5 1.5,1.5 h 17 C 21.331,22.5 22,21.831 22,21 V 20.5 C 22,21.331 21.331,22 20.5,22 H 3.5 C 2.669,22 2,21.331 2,20.5 Z"/>
 <path style="opacity:0.2" d="M 10,3.5 V 4.5 H 8 V 7.5 H 9 V 9.5 H 10 V 12.5 H 9 V 13.5 H 10 V 13.5 13.5 14.5 H 11 V 15.5 H 10 V 17.5 H 11 V 20.5 H 12 V 21.5 H 13 V 19.5 H 12 V 13.5 H 13 V 13.5 L 16,10.5 V 9.5 L 17,8.5 V 6.5 H 16 V 5.5 5.5 H 15 V 4.5 H 13 V 3.5 Z M 9,5.5 H 10 V 6.5 H 9 Z M 13,5.5 V 7.5 H 14 V 6.5 H 15 V 9.5 H 14 V 10.5 L 13,11.5 H 11 V 5.5 Z"/>
 <path style="fill:#ffffff" d="M 10,3 V 4 H 8 V 7 H 9 V 9 H 10 V 12 H 9 V 13 H 10 V 13 13 14 H 11 V 15 H 10 V 17 H 11 V 20 H 12 V 21 H 13 V 19 H 12 V 13 H 13 V 13 L 16,10 V 9 L 17,8 V 6 H 16 V 5 5 H 15 V 4 H 13 V 3 Z M 9,5 H 10 V 6 H 9 Z M 13,5 V 7 H 14 V 6 H 15 V 9 H 14 V 10 L 13,11 H 11 V 5 Z"/>
</svg>
